X: 7
M: 6/8
L: 1/8
K: Am
|: e2^f g2a | ge^c dz_/a | e>_/ae dBG | ABA GEC | D3 ^/F/E/DE | A3 Az2 :|
P: VAR:
"a."^g2 || "b."e |]


